X: 46
T: No_146_Call_to_the_Dance.krn
N: Derived from No_146_Call_to_the_Dance.krn
%%abc-version 2.0
%%abcx-abcm2ps-target-version 5.9.1 (29 Sep 2008)
%%abc-creator hum2abc beta
%%abcx-conversion-date 2019/03/15 08:29:13
%%humdrum-veritas 1767900776
%%humdrum-veritas-data 95950621
%%linebreak <none>
%%barnumbers 0
L: 1/8
M: 3/4
K: C clef=bass
[K:clef=bass][M:3/4]E2EE ED ||  
[M:2/4]EDC2 | 
A,A,A,2 | 
CC CC | 
ED ED ||  
[M:3/4]C2A,A,A,2 | 
C2CA, CA, ||  
[M:2/4]G,G, E,E, | 
G,G, CC | 
A,A, A,G, | 
A,G, E,E, | 
E,2E,2 | 
E,2E,2 | 
CC CC | 
ED DD ||  
[M:3/4]C2A,A, A,A, | 
CC CA, CA, ||  
[M:2/4]G,2E,2 | 
G,G, CC | 
A,A, A,G, | 
A,G, E,E, | 
E,2E,2 | 
E,4 |]  



